public/images/ic-web.svg

<svg width="16" height="13" viewBox="0 0 16 13" xmlns="http://www.w3.org/2000/svg"><title>email 2 copy</title><path d="M14.4 0H1.6C.72 0 0 .72 0 1.6v9.6c0 .88.72 1.6 1.6 1.6h12.8c.88 0 1.6-.72 1.6-1.6V1.6c0-.88-.72-1.6-1.6-1.6zm-4 11.2H1.6V8h8.8v3.2zm0-4H1.6V4h8.8v3.2zm4 4h-3.2V4h3.2v7.2z" fill="#00A8FF" fill-rule="evenodd"/></svg>

<?xml version="1.0" encoding="UTF-8" standalone="no"?>
<svg width="16px" height="13px" viewBox="0 0 16 13" version="1.1" xmlns="http://www.w3.org/2000/svg" xmlns:xlink="http://www.w3.org/1999/xlink">
    <!-- Generator: Sketch 3.6.1 (26313) - http://www.bohemiancoding.com/sketch -->
    <title>email 2 copy</title>
    <desc>Created with Sketch.</desc>
    <defs></defs>
    <g id="Who's-using" stroke="none" stroke-width="1" fill="none" fill-rule="evenodd">
        <g id="Who's-using-detail" transform="translate(-179.000000, -250.000000)" fill="#00A8FF">
            <g id="email-2-copy" transform="translate(179.000000, 250.000000)">
                <g id="web-2">
                    <path d="M14.4,0 L1.6,0 C0.72,0 0,0.72 0,1.6 L0,11.2 C0,12.08 0.72,12.8 1.6,12.8 L14.4,12.8 C15.28,12.8 16,12.08 16,11.2 L16,1.6 C16,0.72 15.28,0 14.4,0 L14.4,0 Z M10.4,11.2 L1.6,11.2 L1.6,8 L10.4,8 L10.4,11.2 L10.4,11.2 Z M10.4,7.2 L1.6,7.2 L1.6,4 L10.4,4 L10.4,7.2 L10.4,7.2 Z M14.4,11.2 L11.2,11.2 L11.2,4 L14.4,4 L14.4,11.2 L14.4,11.2 Z" id="Shape"></path>
                </g>
            </g>
        </g>
    </g>
</svg>
